X:444
T: ES WOLLT EIN JAEGER FRUEH AUFSTEHN
N: F0830
O: Europa, Mitteleuropa, Deutschland, Uckermark
R: erzaehlendes Volks - Lied, Ballade, verwundete Dame
M: 3/4
L: 1/16
K: F
C2F2A2 | c4f4dcB2 | A4z2
c2c2c2 | c2BAB2GAB2B2 | B2AGA2
A2cBG2 | F4z2
c2c2c2 | c2BAB2GAB2B2 | B2AGA2
A2cBG2 | F4z2

